Sources/FrostedUI/Resources/Icons.xcassets/notificationBellCrossed20.imageset/notification-bell-crossed-20.svg

<svg width="20" height="20" viewBox="0 0 20 20" fill="none" xmlns="http://www.w3.org/2000/svg" data-fui-icon="true">
  <path
    d="M15.7158 6.03418C16.1219 5.95329 16.5165 6.217 16.5977 6.62305C16.6866 7.06886 16.7334 7.52935 16.7334 8V12.6455C16.7335 12.9247 16.827 13.1962 16.999 13.416L17.4912 14.0439C18.1131 14.838 17.5476 15.9997 16.5391 16H12.7334C12.7334 17.6569 11.3903 19 9.7334 19C8.07674 18.9998 6.7334 17.6567 6.7334 16V15.25C6.7334 14.8359 7.06938 14.5002 7.4834 14.5H15.9434L15.8184 14.3408C15.4395 13.857 15.2335 13.26 15.2334 12.6455V8C15.2334 7.62839 15.1968 7.26575 15.127 6.91602C15.0461 6.5101 15.31 6.11544 15.7158 6.03418ZM8.2334 16C8.2334 16.8283 8.90517 17.4998 9.7334 17.5C10.5618 17.5 11.2334 16.8284 11.2334 16H8.2334ZM16.2031 1.46973C16.4959 1.17691 16.9708 1.17705 17.2637 1.46973C17.5566 1.76262 17.5566 2.23738 17.2637 2.53027L3.26367 16.5303C2.97076 16.823 2.49595 16.8231 2.20312 16.5303C1.91052 16.2374 1.91052 15.7626 2.20312 15.4697L16.2031 1.46973ZM9.7334 1C10.8265 1 11.8635 1.25091 12.7871 1.69922C13.1597 1.88013 13.3157 2.32953 13.1348 2.70215C12.9538 3.07464 12.5044 3.22971 12.1318 3.04883C11.408 2.6975 10.5946 2.5 9.7334 2.5C6.69603 2.50023 4.2334 4.96258 4.2334 8V11.376C4.2334 11.7902 3.89761 12.126 3.4834 12.126C3.06938 12.1257 2.7334 11.79 2.7334 11.376V8C2.7334 4.13415 5.8676 1.00023 9.7334 1Z"
    fill="currentColor"
  />
</svg>

<svg xmlns="http://www.w3.org/2000/svg" width="20" height="20" fill="none" data-fui-icon="true" viewBox="0 0 20 20"><path fill="currentColor" d="M15.716 6.034a.75.75 0 0 1 .882.59q.134.669.135 1.376v4.646c0 .279.094.55.266.77l.492.628c.622.794.057 1.956-.952 1.956h-3.806a3 3 0 1 1-6 0v-.75a.75.75 0 0 1 .75-.75h8.46l-.125-.16a2.75 2.75 0 0 1-.585-1.694V8q0-.558-.106-1.084a.75.75 0 0 1 .589-.882M8.233 16a1.5 1.5 0 0 0 3 0zm7.97-14.53a.75.75 0 0 1 1.06 1.06l-14 14a.75.75 0 0 1-1.06-1.06zM9.733 1c1.093 0 2.13.25 3.054.7a.751.751 0 0 1-.655 1.349A5.5 5.5 0 0 0 4.234 8v3.376a.75.75 0 0 1-1.5 0V8a7 7 0 0 1 7-7"/></svg>
